X:1
T:Title
%%score { ( 1 3 ) | ( 2 4 ) }
L:1/8
Q:1/4=88
M:2/4
K:F
V:1 treble nm="Grand Piano"
V:3 treble 
V:2 bass 
V:4 bass 
V:1
 [Ac][Ac] [GB][Ac] | AA F2 | z2 [GB]2 | [CFA]/[CFA]/[CGB] [CAc]2 | [CAc][CAc] [CGB][CAc] | %5
w: E.~O.~Excell * * *|||||
 [CFA][CFA] [A,F]2 | [B,DG][DGB]/[DGB]/ [CFA]/[CFA]/[B,EG] | [A,F]4 | [Fc]4 | [CF]4 | %10
w: |||||
 [EG][EG]/[EG]/ [GB]/[GB]/[EG] | .C c3 | c4 | [CF]4 | [B,DG][DGB]/[DGB]/ [CFA]/[CFA]/[B,EG] | %15
w: |||||
 [A,F]4 |] %16
w: |
V:2
 [F,C][F,C] [F,C][F,C] | [F,CF][F,CF] [F,A,]2 | [C,C][C,C]/[C,C]/ [C,C]C, | F,/F,/F, F,2 | %4
 F,F, F,F, | F,F, F,2 | B,,B,,/B,,/ C,/C,/C, | F,4 | [F,A,]2 F,2 | F,/F,/F, F,2 | %10
 [C,C][C,C]/[C,C]/ [C,C]/[C,C]/[C,C] | F,/F,/[F,A,] F,2 | F4 | F,/F,/F, F,2 | %14
 B,,B,,/B,,/ C,/C,/C, | F,4 |] %16
V:3
 x4 | x4 | [EG][EG]/[EG]/ z C | x4 | x4 | x4 | x4 | x4 | z2 A,2 | A,/A,/A, A,2 | x4 | %11
 [FA]-<[CF-A] [A,F]2 | z2 A,2 | A,/A,/A, A,2 | x4 | x4 |] %16
V:4
 x4 | x4 | x4 | x4 | x4 | x4 | x4 | x4 | x4 | x4 | x4 | x4 | [F,A,]2 F,2 | x4 | x4 | x4 |] %16

